!!!!SEGMENT: pl-kk--kk-i-382--043-002_lingenberger-j-msza-na-czesc-sw-stanislawa-gloria.krn
!!!id: 18xx:1538
!!!COM: Lingenberger, J.
!!!OTL: Msza na cześć św. Stanisława – Gloria
!!!PDT:
!!!SMS-siglum: PL-Kk
!!!SMS-shelfmark: Kk.I.382
!!!NIFC-rismID: 1001140237
!!!URL-scan: http://repozytorium.nifc.pl/skany/pl-kk-nut--i-382
!!!ONB-nifc: UWAGA: obsada: S/T 1. Skan 0034-0035,0137, 0286 (Agnus). Osobne części Mszy: Kyrie, Gloria, Credo, Sanctus, Benedictus, Agnus Dei
!!!SMS-variant:
!!!SMS-altvar:
**kern	**text	**dynam	**kern	**text	**dynam	**kern	**text	**dynam
*part3	*part3	*part3	*part2	*part2	*part2	*part1	*part1	*part1
*staff3	*staff3	*	*staff2	*staff2	*	*staff1	*staff1	*
*I"Bas	*	*	*I"Tenor II	*	*	*I"Tenor I	*	*
*I'B	*	*	*I'T 2	*	*	*I'T 1	*	*
*clefF4	*	*	*clefG2	*	*	*clefG2	*	*
*k[b-e-]	*	*	*k[b-e-]	*	*	*k[b-e-]	*	*
*M4/4	*	*	*M4/4	*	*	*M4/4	*	*
*met(c)	*	*	*met(c)	*	*	*met(c)	*	*
*	*	*	*	*	*	*	*	*below
=1	=1	=1	=1	=1	=1	=1	=1	=1
!	!	!	!LO:TX:t=P:problem:partia na str. 0137	!	!	!LO:SIC:o:s:v=all\right	!	!
!LO:TX:rj:a:B:t=allegro moderato	!	!LO:DY:rj	!LO:TX:a:B:t=allegro \nmoderato	!	!LO:DY:rj	!LO:TX:rj:a:B:t=allegro moderato	!	!LO:DY:rj
4.B-\	Et	f	4.b-\	Et	f	4.b-\	Et	f
8B-\	in	.	8b-\	in	.	8b-\	in	.
4B-\	ter-	.	4b-\	ter-	.	4b-\	ter-	.
4c\	-ra	.	4cc\	-ra	.	4cc\	-ra	.
=2	=2	=2	=2	=2	=2	=2	=2	=2
*2\right	*	*	*2\right	*	*	*2\right	*	*
2d\	pax	.	2dd\	pax	.	2dd\	pax	.
2B-\	ho-	.	2b-\	ho-	.	2b-\	ho-	.
=3	=3	=3	=3	=3	=3	=3	=3	=3
4.G\	-mi-	.	4.b-\	-mi-	.	4.ee-\	-mi-	.
8B-\	-ni-	.	8b-\	-ni-	.	8dd\	-ni-	.
2B-\	-bus	.	2b-\	-bus	.	2dd\	-bus	.
=4	=4	=4	=4	=4	=4	=4	=4	=4
!	!	!	!LO:TX:t=P:problem:2/left:global	!	!	!	!	!
2F\	bo-	.	2a/	bo-	.	2cc\	bo-	.
2G\	-ne	.	2b-\	-ne	.	2b-\	-ne	.
!LO:LB:g=original	!	!	!LO:LB:g=original	!	!	!LO:LB:g=original	!	!
=5	=5	=5	=5	=5	=5	=5	=5	=5
4F\	vo-	.	4a/	vo-	.	4cc\	vo-	.
8D\L	-lun-	.	4b-\	-lun-	.	4dd\	-lun-	.
8E-\J	.	.	.	.	.	.	.	.
2F\	-ta-	.	2a/	-ta-	.	2cc\	-ta-	.
=6	=6	=6	=6	=6	=6	=6	=6	=6
4BB-/	-tis	.	4b-\	-tis	.	4b-\	-tis	.
!	!	!	!	!	!	!	!	!LO:DY:a
.	.	.	.	.	.	.	.	f
4r	.	.	4r	.	.	4dd\	lau-	.
4r	.	.	4r	.	.	[2ff\	-da-	.
.	.	.	.	.	f	.	.	.
4A\	lau-	.	4cc\	lau-	.	.	.	.
=7	=7	=7	=7	=7	=7	=7	=7	=7
4B-\	-da-	.	4dd\	-da-	.	2ff\]	.	.
8A\L	-mus	.	8cc\L	-mus	.	.	.	.
8G\J	.	.	8b-\J	.	.	.	.	.
4A\	te	.	4cc\	te	.	2ff\	-mus	.
8F\	be-	.	8cc\	be-	.	.	.	.
8F\	-ne-	.	8cc\	-ne-	.	.	.	.
=8	=8	=8	=8	=8	=8	=8	=8	=8
4B-\	-di-	.	4dd\	-di-	.	2.ff\	te	.
8A\	-ci-	.	8cc\	-ci-	.	.	.	.
8G^\	-mus	.	8b-\	-mus	.	.	.	.
!	!	!	!LO:TX:a:t=rit	!	!	!	!	!
.	.	.	.	.	p	.	.	.
4F\	te	.	4a/	te	.	.	.	.
!	!	!LO:DY:a	!	!	!	!LO:TX:a:t=rit	!	!
.	.	p	.	.	.	.	.	.
[4D\	a	.	[4b-\	a	.	[4ff\	a-	p
!LO:LB:g=original	!	!	!LO:LB:g=original	!	!	!	!	!
=9	=9	=9	=9	=9	=9	=9	=9	=9
4D\]	.	.	4.b-\]	.	.	4ff\]	.	.
4D\	-do-	.	.	.	.	4ff\	-do-	.
.	.	.	8a/	-do-	.	.	.	.
(2E-\	-ra-	.	(<4g/	-ra-	.	([2gg\	-ra-	.
.	.	.	4a/	.	.	.	.	.
=10	=10	=10	=10	=10	=10	=10	=10	=10
!	!	!	!	!	!LO:HP:a	!	!	!
4E-\	.	.	2.b-\)	.	>	4gg\]	.	.
4D\	.	.	.	.	.	4ff\)	.	.
4C/)	.	.	.	.	.	4ee-\	.	.
4C/	-mus	.	4a/	-mus	]]	4ee-\	-mus	.
!	!	!	!	!	!	!LO:LB:g=original	!	!
=11	=11	=11	=11	=11	=11	=11	=11	=11
4BB-/	te	.	2b-\	te	.	2dd\	te	.
(2B-\	glo-	.	.	.	.	.	.	.
!	!	!	!	!	!	!LO:TX:a:t=a tempo	!	!
.	.	.	.	.	f	.	.	f
.	.	.	(4b-\	glo-	.	(4dd\	glo-	.
4A\)	.	.	4cc\)	.	.	4ff\)	.	.
=12	=12	=12	=12	=12	=12	=12	=12	=12
4G\	-ri-	.	4b-\	-ri-	.	4ee-\	-ri-	.
4F\	-fi-	.	4b-\	-fi-	.	4dd\	-fi-	.
(4E-\	-ca-	.	[2b-\	-ca-	.	(2cc\	-ca-	.
4En\)	.	.	.	.	.	.	.	.
=13	=13	=13	=13	=13	=13	=13	=13	=13
2F\	.	.	2b-\]	.	.	2dd\)	.	.
2FF/	-mus	.	2a/	-mus	.	2cc\	-mus	.
=14	=14	=14	=14	=14	=14	=14	=14	=14
2.BB-/	Te.	.	2b-\	te	.	2.b-\	te	.
.	.	.	2r	.	.	.	.	.
4r	.	.	.	.	.	4r	.	.
!LO:LB:g=original	!	!	!LO:LB:g=original	!	!	!	!	!
=15	=15	=15	=15	=15	=15	=15	=15	=15
!	!	!	!	!	!LO:DY:rj	!	!	!LO:DY:rj:a
4.BB-/	Quo-	.	4.d/	Quo-	f	4.b-\	Quo-	f
8C/	-ni-	.	8e-/	-ni-	.	8b-\	-ni-	.
4D/	-am	.	4f/	-am	.	4b-\	-am	.
4BB-/	tu	.	4f/	tu	.	4b-\	tu	.
=16	=16	=16	=16	=16	=16	=16	=16	=16
4E-\	so-	.	4g/	so-	.	4b-\	so-	.
4D\	-lus	.	4f/	-lus	.	4b-\	-lus	.
2E-\	sanc-	.	2g/	sanc-	.	(4b-\	sanc-	.
.	.	.	.	.	.	4cc\)	.	.
!	!	!	!	!	!	!LO:LB:g=original	!	!
=17	=17	=17	=17	=17	=17	=17	=17	=17
4BB-/	-tus	.	4f/	-tus	.	4dd\	-tus	.
4B-\	tu	.	4b-\	tu	.	4dd\	Tu	.
4G\	so-	.	4b-\	so-	.	4dd\	so-	.
!	!	!LO:HP:a	!	!	!	!	!	!
4G\	-lus	>	4b-\	-lus	.	4ee-\	-lus	.
=18	=18	=18	=18	=18	=18	=18	=18	=18
4F\	Do-	]	4b-\	Do-	.	4.ff\	Do-	.
4F\	-mi-	.	4a/	-mi-	.	.	.	.
.	.	.	.	.	.	8cc\	-mi-	.
4BB-/	-nus	.	4b-\	-nus	.	4dd\	-nus	.
8B-\L	Tu	.	4b-\	Tu	.	4dd\	Tu	.
8A\J	.	.	.	.	.	.	.	.
=19	=19	=19	=19	=19	=19	=19	=19	=19
2G^\	so-	.	2b-\	so-	.	2ee-\	so-	.
4F\	-lus	.	4a/	-lus	.	4dd\	-lus	.
4F\	al-	.	4a/	al-	.	4dd\	al-	.
!LO:LB:g=original	!	!	!LO:LB:g=original	!	!	!	!	!
=20	=20	=20	=20	=20	=20	=20	=20	=20
(8E-\L	-tis-	.	8g\L	-tis-	.	4.gg\	-tis-	.
8F\	.	.	8a\	.	.	.	.	.
8G\J)	.	.	8b-\J	.	.	.	.	.
8A\	-si-	.	8cc\	-si-	.	8gg\	-si-	.
4B-\	-mus	.	2dd\	-mus	.	2ff\	-mus	.
(4B-\	Je-	.	.	.	.	.	.	.
=21	=21	=21	=21	=21	=21	=21	=21	=21
!	!	!	!	!	!	!	!	!LO:DY:rj
4B-\	.	.	2cc\	Je-	.	2ee-\	Je-	p
!	!	!	!	!	!	!	!	!LO:HP:a
4A\)	.	.	.	.	.	.	.	<
2B-\	-su	.	4b-\	-su	.	2dd\	-su	[[
.	.	.	[4b-\	Chris-	.	.	.	.
=22	=22	=22	=22	=22	=22	=22	=22	=22
!	!	!	!	!	!	!	!	!LO:HP:a
1F\	Chris-	.	(<4b-\]	.	.	1cc\	Chris-	>
.	.	.	4g/	.	.	.	.	.
.	.	.	2a/)	.	.	.	.	]
!	!	!	!	!	!	!LO:LB:g=original	!	!
=23	=23	=23	=23	=23	=23	=23	=23	=23
2BB-/	-te	.	2b-\	-te	.	2b-\	-te	.
4r	.	.	4r	.	.	4r	.	.
!	!	!	!	!	!	!	!	!LO:DY:a
.	.	.	.	.	.	.	.	mf
4r	.	.	4b-\	cum	.	4dd\	cum	.
=24	=24	=24	=24	=24	=24	=24	=24	=24
!LO:TX:a:t=1	!	!	!	!	!	!	!	!
1r	.	.	4b-\	san-	.	4dd\	san-	.
.	.	.	4a/	-cto	.	4cc\	-cto	.
.	.	.	4g/	spi-	.	4.ee-\	spi-	.
.	.	.	4a/	ri-	.	.	.	.
.	.	.	.	.	.	8ee-\	-ri-	.
!	!	!	!LO:LB:g=original	!	!	!	!	!
=25	=25	=25	=25	=25	=25	=25	=25	=25
!	!	!LO:DY:a	!	!	!	!	!	!
4r	.	f	4b-\	-tu	.	4dd\	-tu	.
.	.	.	.	.	f	.	.	f
4B-\	in	.	4b-\	in	.	4dd\	in	.
8B-\L	glo-	.	4b-\	glo-	.	4dd\	glo-	.
8A\J	.	.	.	.	.	.	.	.
8G\	-ri-	.	8b-\	-ri-	.	8ee-\	-ri-	.
8F\	-a	.	8b-\	-a	.	8ff\	-a	.
!LO:LB:g=original	!	!	!	!	!	!	!	!
=26	=26	=26	=26	=26	=26	=26	=26	=26
4E-\	De-	.	4b-\	De-	.	4gg\	De-	.
4D\	-i	.	4b-\	-i	.	4ff\	-i	.
4G\	Pa-	.	4b-\	Pa-	.	4ee-\	Pa-	.
4G\	-tris	.	4b-\	-tris	.	4dd\	-tris	.
=27	=27	=27	=27	=27	=27	=27	=27	=27
1F\	a-	.	(<4b-\	a-	.	(4.ff\	a-	.
.	.	.	8a/L	.	.	.	.	.
.	.	.	8g/J	.	.	8ee-\	.	.
.	.	.	2a/)	.	.	4dd\	.	.
.	.	.	.	.	.	4cc\)	.	.
!	!	!	!	!	!	!LO:LB:g=original	!	!
=28	=28	=28	=28	=28	=28	=28	=28	=28
2.B-\	-men	.	2.b-\	-men	.	2.dd\	-men	.
4r	.	.	4r	.	.	4r	.	.
=29	=29	=29	=29	=29	=29	=29	=29	=29
*^	*	*	*	*	*	*	*	*
1E-/	(<2E-\	a-	.	(2g/	a-	.	1ee-\	a-	.
.	2C/)	.	.	2a/)	.	.	.	.	.
*v	*v	*	*	*	*	*	*	*	*
=30	=30	=30	=30	=30	=30	=30	=30	=30
1F/ 1BB-/;	-men	.	1b-\;	-men.	.	1dd\	-men	.
==	==	==	==	==	==	==	==	==
*-	*-	*-	*-	*-	*-	*-	*-	*-
!!!system-decoration: [([(s1,s2)]s3)]
!!!RDF**kern: > = above
!!!RDF**kern: < = below
!!!ENC: Tomasz Grochalski
!!!END: 2021-01-30
!!!EED: Leszek Kubiak
!!!EST: 2021-02-09
